X: 40175
T: Time For A Rest
R: reel
M: 4/4
K: Adorian
"Am"A2 cA eAcA|"G"G2 BG EFGE|"Am"A2 cA eAce|"F"d2 ed "G"cABG|
"Am"A2 cA eAcA|"G"G2 BG EFGE|"F"AGAB cBce|"G"d2 ed cABG|
"Am"A2 cA eAcA|"G"G2 BG dcBG|"F"A2 cA eAce|"Dm"=fedc "Em"BcBG|
"Am"A2 cA eAcA|"G"G2 BG EFGE|"F"AGAB cBcd|"C"cgec "G"BBcB|
"C"c2 ec gcec|"G"G2 BG EFGE|"F"A2 cA eAce|"Dm"=fedc "G"BcBG|
"C"c2 ec gcec|"G"G2 BG EFGE|"F"AGAB cBce|"G"dcBA GABG|
"C"c2 ec gcec|"G"G2 BG EFGE|"F"A2 cA eAce|"Dm"=fed=f "G"edcB|
"C"c2 ec gcec|"G"G2 BG EFGE|"F"AGAB cBce|"G"d2 ed cA"Em"BG|

